X: 3
T: The Gander In The Pratie Hole
R: jig
M: 6/8
L: 1/8
K: Dmaj
|:FAD FAD|GFG EFG|F/G/AD F/G/AD|GED D3|
FAD FAD|GFG EFG|fed ecA|GED D3:||
|:Add ded|cAB =cAG|Add ded|^cAB =c2 B|
Add ded|^cAB =cde|fed ecA|GED D3:||

